X:1
T:Brandenburgerisches Konzert Nr. 3 in G-Dur BWV 1048
T:Brandenburgerisches Konzert Nr. 3 in G-Dur BWV 1048
T:Johann Sebastian Bach
C:Johann Sebastian Bach
L:1/8
Q:1/4=100
M:2/2
K:G
V:1 bass nm="Violonchelo" snm="Vc."
V:1
 G,,G,,G,G, G,,G,,G,G, | G,,G,, G,/F,/E, A,D, D/^C/D | D,D, D/^C/D D,D, D/C/D | %3
 F,G,E,C, D,E, D,/C,/B,, | A,,/G,,/C, B,,/A,,/G,, G,/F,/E, D,/C,/B,, | ^C,D,D,,D,, D,/E,/F,G,A, | %6
 F,G,CD D,G, F,/E,/D,/C,/ | B,,/A,,/B,, A,,/G,,/D, D,,G,, z D, | G,,2 z2 z2 z D/C/ | %9
 B,/C/B,/A,/G,^C, D,2 z A, | D2 z A, D,2 z A,, | D,,B,,G,,A,, B,,A,,/G,,/F,,E,,/D,,/ | %12
 G,,F,,/E,,/D,,D/^D/ B,A,/G,/F,^G, | A,A,,A,,A,/B,/ ^CDEC | DG,A,A,, D,D/C/ B,/C/B,/A,/ | %15
 G,2 z2 z2 z G,/F,/ | G,G,,/A,,/B,,^C, D,2 z A, | D2 z A, D,2 z A,, | D,,D,D,D,, D,,D,D,D,, | %19
 D,,D,/^C,/B,,E, A,,2 z A,, | E,2 z E, B,,2 z B,, | F,B,/A,/B,G,/D,/ E,A,/G,/A,D,/^C,/ | %22
 D,G,A,A,, D,D/^C/D z | z D/^C/D z z D,/^C,/D, z | z D,/^C,/D, z z D/=C/DD, | %25
 G,,G,/F,/G, z z G,/F,/G, z | z G,,/F,,/A,, z z G,,/F,,/A,, z | z G,/=F,/G,G,, C,2 z/ B,,/C,/D,/ | %28
 E,A,/G,/A,D,/C,/ D,G,/=F,/G,C,/B,,/ | C,=F,/E,/ F,2- F,/G,/F,/E,/ D,/C,/B,,/A,,/ | %30
 G,,C,G,G,, C,2 z C/B,/ | CG,/=F,/G,C/B,/ CE,/D,/E,C/B,/ | CC,/D,/E,^F, G,G,, z G,/F,/ | %33
 G,D,/C,/D,G,/F,/ G,B,,/A,,/B,,G,/F,/ | G,G,,/A,,/B,,^C, D,/C,/D,/E,/ D,/F,/D,/G,/ | %35
 D,/^C,/D,/E,/ D,/A,/D,/A,/ D,/C,/D,/E,/ D,/=C/D,/D/ | B,A,/G,/A,G,/F,/ G,B,/A,/B,D/C/ | %37
 D z z2 z2 z G, | G,G,,G,,G, G,G,,G,,G,/F,/ | G,G,,/A,,/B,,^C, D,D,,D,,D/^C/ | %40
 DD,D,,D,/^C,/ D,D,,D,,F, | G,E,C,D, E,D,/C,/B,,A,,/G,,/ | C,B,,/A,,/G,,G,/F,/ E,D,/C,/B,,^C, | %43
 D,D,,D,,D,/F,/ G,A,B,B,, | G,C,D,D,, E,,2 z F,, | G,,C,,D,,D, G,F,/E,/ D,/C,/B,,/A,,/ | %46
 G,,2 z2 G,,2 z2 | G,,2 z2 G,,2 z2 | G,,2 z2 G,,2 z2 | G,F,E,A, D,^C,/B,,/ A,,/G,,/F,,/E,,/ | %50
!p! ^D,,2 z2 F,,2 z2 | A,,2 z2 A,2 z2 | ^D,2 z2 B,,2 z2 | E,2 z2 z2 z G,/F,/ | %54
 E,E,,/F,,/G,,A,, B,,/^A,,/B,,/^C,/ B,,/^D,/B,,/E,/ | %55
 B,,/^A,,/B,,/^C,/ B,,/F,/B,,/G,/ B,,/A,,/B,,/C,/ B,,/=A,/B,,/B,/ | %56
 A,G,/F,/G,F,/^E,/ D>C A,/G,/F,/E,/ | ^D,E,A,,B,, E,,2 z B,, | E,2 z B, E2 z B, | %59
 E,/F,/G,/F,/ E,/D,/^C,/B,,/ A,,2 z E,, | A,,2 z E, A,2 z E, | %61
 A,,/B,,/^C,/B,,/ A,,/G,,/F,,/E,,/ D,,/A,/D,/E,/ F,/G,/A,/G,/ | F,D z A, DA,D,A,, | %63
 D,,/B,/A,/G,/ F,/E,/D,/C,/ D,G,/F,/G,D, | G,,2 z F, G,/D,/G,,/A,,/ B,,/C,/D,/C,/ | %65
 B,,/D,/G,,/A,,/ B,,/C,/D,/C,/ B,,/C,/D,/C,/ B,,/A,,/G,,/F,,/ |!p! E,,2 z2 E,,2 z2 | %67
 E,2 z2 E,2 z2 | ^A,,2 z2 F,,2 z2 | B,,B,B,B,, B,,B,B,B,, | B,,B,/A,/G,F,/E,/ D,^C,/B,,/^A,,F,, | %71
 B,,B,/A,/G,F,/E,/ D,/^C,/D,/E,/ D,/E,/D,/C,/ | B,,G,E,F, G,>F, E,/D,/^C,/B,,/ | %73
 D,E,F,F,, B,,B,/^A,/B,D/^C/ | D z z2 z2 z B,,/^D,/ | D,G,/F,/G,^C,/B,,/ C,F,/E,/F,B,,/^A,,/ | %76
 B,,E,F,F,, B,,=C,B,,A,, |!p! G,,2 z2 z4 | z8 | D,^C,D,E, F,G,F,E, | D,^C,B,,E, A,,2 z A,, | %81
 D,D,,F,,A,, D,2 z D, | G,G,,B,,D, G,2 z B,, | E,E,,G,,B,, E,2 z G,, | C,D,G,,C, D,C,B,,A,, | %85
 G,,G,G,G,, G,,G,G,G,, | G,,G,/F,/E,A, DCB,A, | G,=F,E,D, C_B,A,G, | ^F,E,D,^C, B,A,G,F, | %89
 E,D,=C,B,, A,,G,,=F,,E,, |!mp! D,,2 z2 z4 |!mp! ^D,,2 z2 z4 |!mf! E,,2 z2 z4 |!mf! E,,2 z2 z4 | %94
!f! E,,2 z2 z4 |!f! E,,2 z2 z4 | A,, z z2 z2 z A, | G,, z z2 z2 z G, | =F,, z z2 z2 z =F, | %99
 E,,E,E,E,, E,,E,E,E,, | C,D,E,E,, A,,2 z A,/^G,/ | A,E,/D,/E,A,/^G,/ A,C,/B,,/C,A,/G,/ | %102
 A,A,,/B,,/^C,^D, E,E,, z E,/D,/ | E,B,,/A,,/B,,E,/^D,/ E,G,,/F,,/G,,E,/D,/ | %104
 E,E,,/F,,/G,,A,, B,,/A,,/B,,/C,/ B,,/C,/B,,/A,,/ | G,,2 z D, G,/F,/G,/A,/ G,/B,/A,/C/ | %106
 B,/C/B,/A,/ G,/B,/A,/G,/ F,/B,/A,/G,/ F,/G,/F,/E,/ | D,2 z2 D,2 z2 | G,,2 z2 G,,2 z2 | %109
 ^G,,2 z2 G,,2 z2 | A,,2 z2 A,,2 z2 | F,,2 z2 F,,2 z2 | =F,,2 z2 F,,2 z2 | %113
 ^C,,/D,,/C,,/_B,/ G,/E,/^C,/G,,/ C,,/D,,/C,,/B,/ G,/E,/C,/G,,/ | %114
 D,,/_E,,/D,,/_B,/ G,/D,/_B,,/G,,/ D,,/E,,/D,,/B,/ G,/D,/B,,/G,,/ | %115
 D,,/_E,,/D,,/^C/ _B,/G,/=E,/^C,/ D,,/_E,,/D,,/C/ B,/G,/=E,/C,/ | %116
 D,,/_E,,/D,,/D/ _B,/G,/D,/_B,,/ D,,/=E,,/D,,/D/ =B,/G,/D,/=B,,/ | %117
 D,,/_E,,/D,,/_E/ C/A,/F,/D,/ D,,/E,,/D,,/E/ C/A,/F,/D,/ | G,, z z2 z2 z G, | =F,, z z2 z2 z =F, | %120
 _E,, z z2 z2 z _E, | D,,2 z C, _B,,/D,/G,,/A,,/ B,,/C,/D,/E,/ | %122
 F,/A,/D,/E,/ F,/G,/A,/_B,/ C/A,/F,/G,/ A,/B,/C/D/ | E>D C/_B,/A,/G,/ F,G,DD, | %124
 G,,G,G,G,, G,,G,G,G,, | G,,G,/F,/E,A, D,D/^C/DD, | D,D/^C/DD, D,DCD | %127
 G,E,C,D, E,D,/C,/B,,A,,/G,,/ | C,B,,/A,,/G,,G,/F,/ E,D,/C,/B,,^C, | D,D,,D,,D,/E,/ F,G,A,F, | %130
 G,CDD, G,G,/F,/G,B,/A,/ | B, z z2 z4 | z8 | z2 z D, G,F,/E,/ D,/C,/B,,/A,,/ | %134
 B,,A,,/G,,/D,D,, !fermata!G,,4 || %135

